images/about/info-one-image.svg

<?xml version="1.0" encoding="UTF-8" standalone="no"?>
<svg
   width="350"
   height="350"
   viewBox="0 0 350 350"
   fill="none"
   version="1.1"
   id="svg42"
   sodipodi:docname="info-one-image.svg"
   inkscape:version="1.1 (c68e22c387, 2021-05-23)"
   xmlns:inkscape="http://www.inkscape.org/namespaces/inkscape"
   xmlns:sodipodi="http://sodipodi.sourceforge.net/DTD/sodipodi-0.dtd"
   xmlns="http://www.w3.org/2000/svg"
   xmlns:svg="http://www.w3.org/2000/svg">
  <sodipodi:namedview
     id="namedview44"
     pagecolor="#ffffff"
     bordercolor="#666666"
     borderopacity="1.0"
     inkscape:pageshadow="2"
     inkscape:pageopacity="0.0"
     inkscape:pagecheckerboard="0"
     showgrid="false"
     inkscape:zoom="1.6313725"
     inkscape:cx="228.02885"
     inkscape:cy="206.26803"
     inkscape:window-width="1920"
     inkscape:window-height="1017"
     inkscape:window-x="-8"
     inkscape:window-y="-8"
     inkscape:window-maximized="1"
     inkscape:current-layer="svg42" />
  <g
     opacity="0.5"
     clip-path="url(#clip0)"
     id="g10">
    <path
       opacity="0.529052"
       d="m 216.177,107.283 c -42.133,19.139 -60.773,68.81 -41.634,110.943 19.139,42.133 68.81,60.773 110.943,41.634 42.133,-19.14 60.773,-68.81 41.634,-110.943 -19.139,-42.133 -68.81,-60.7733 -110.943,-41.634 z"
       fill="#e7652c"
       stroke="#e7652c"
       stroke-width="10.2763"
       id="path2" />
    <path
       d="m 193.75,161.015 c -42.133,19.139 -60.773,68.81 -41.634,110.943 19.139,42.133 68.81,60.773 110.943,41.634 42.133,-19.139 60.773,-68.81 41.634,-110.943 -19.14,-42.133 -68.81,-60.773 -110.943,-41.634 z"
       fill="#e7652c"
       stroke="#e7652c"
       stroke-width="10.2763"
       id="path4" />
    <path
       d="m 68.5079,178.631 c -31.5997,14.354 -45.5798,51.607 -31.2254,83.207 14.3544,31.599 51.6076,45.58 83.2075,31.225 31.599,-14.354 45.58,-51.607 31.225,-83.207 -14.354,-31.6 -51.607,-45.58 -83.2071,-31.225 z"
       fill="#f9c9b4"
       id="path6" />
    <path
       opacity="0.623853"
       d="m 118.829,169.14 c -37.8381,17.189 -54.5783,61.797 -37.3899,99.635 17.1883,37.838 61.7959,54.579 99.6349,37.39 37.838,-17.188 54.578,-61.796 37.39,-99.635 -17.188,-37.838 -61.796,-54.578 -99.635,-37.39 z"
       fill="#f9c9b4"
       id="path8" />
  </g>
  <g
     clip-path="url(#clip1)"
     id="g32">
    <path
       d="m 290.733,47.0359 c 0,-0.3919 0,-0.7838 -0.392,-1.1758 v -0.3919 c -0.392,-0.392 -0.392,-0.7839 -0.784,-1.1759 L 246.443,1.1778 c -0.392,-0.391947 -0.784,-0.391947 -1.176,-0.783897 h -0.392 c -0.392,0 -0.784,-0.39194988 -1.176,-0.39194988 H 114.356 c -2.352,0 -3.92,1.56779688 -3.92,3.91949688 V 231.252 c 0,2.352 1.568,3.92 3.92,3.92 h 19.597 23.517 19.598 35.275 74.47 c 2.352,0 3.92,-1.568 3.92,-3.92 z M 277.407,43.1165 H 247.618 V 13.3283 Z m -139.534,47.034 h 15.678 V 203.816 h -15.678 z m 1.959,-7.8391 5.88,-13.7182 5.879,13.7182 z m -1.959,145.0216 v -15.678 h 15.678 v 15.678 z m 43.114,0 v -23.517 h 15.678 v -7.839 H 180.987 V 172.46 h 15.678 v -7.839 h -15.678 v -27.437 h 15.678 v -7.839 h -15.678 v -23.517 h 15.678 V 97.9894 H 180.987 V 78.392 h 27.437 v 148.941 z m 35.276,0 V 74.4725 c 0,-2.3517 -1.568,-3.9196 -3.92,-3.9196 h -35.275 c -2.352,0 -3.92,1.5679 -3.92,3.9196 V 227.333 H 161.39 V 207.735 86.2309 c 0,-1.1758 -0.392,-2.3517 -1.176,-2.7436 L 149.239,57.6186 c -0.392,-1.5678 -1.96,-2.3517 -3.527,-2.3517 -1.568,0 -2.744,0.7839 -3.528,2.3517 L 131.21,83.4873 c -0.784,0.7839 -1.176,1.5678 -1.176,2.7436 V 207.735 227.333 H 118.275 V 7.84095 H 239.779 V 47.0359 c 0,2.3518 1.568,3.9196 3.92,3.9196 h 39.195 V 227.333 Z"
       fill="#000000"
       id="path12" />
    <path
       d="m 161.39,19.5996 h -31.356 v 7.839 h 31.356 z"
       fill="#000000"
       id="path14" />
    <path
       d="M 267.216,86.231 H 231.94 v 7.839 h 35.276 z"
       fill="#000000"
       id="path16" />
    <path
       d="M 267.216,105.829 H 231.94 v 7.839 h 35.276 z"
       fill="#000000"
       id="path18" />
    <path
       d="M 267.216,125.426 H 231.94 v 7.839 h 35.276 z"
       fill="#000000"
       id="path20" />
    <path
       d="M 267.216,145.023 H 231.94 v 7.839 h 35.276 z"
       fill="#000000"
       id="path22" />
    <path
       d="M 267.216,164.621 H 231.94 v 7.839 h 35.276 z"
       fill="#000000"
       id="path24" />
    <path
       d="M 267.216,184.218 H 231.94 v 7.839 h 35.276 z"
       fill="#000000"
       id="path26" />
    <path
       d="M 267.216,203.816 H 231.94 v 7.839 h 35.276 z"
       fill="#000000"
       id="path28" />
    <path
       d="m 192.746,35.2773 h -62.712 v 7.839 h 62.712 z"
       fill="#000000"
       id="path30" />
  </g>
  <defs
     id="defs40">
    <clipPath
       id="clip0">
      <rect
         width="344"
         height="344"
         fill="#ffffff"
         transform="rotate(155.57,187.99074,232.90189)"
         id="rect34"
         x="0"
         y="0" />
    </clipPath>
    <clipPath
       id="clip1">
      <rect
         width="235.16901"
         height="235.17"
         fill="#ffffff"
         transform="translate(82.9998,0.00195312)"
         id="rect37"
         x="0"
         y="0" />
    </clipPath>
  </defs>
</svg>

<svg width="456" height="510" viewBox="0 0 456 510" fill="none" xmlns="http://www.w3.org/2000/svg">
<g opacity="0.5" clip-path="url(#clip0)">
<path opacity="0.529052" d="M216.177 107.283C174.044 126.422 155.404 176.093 174.543 218.226C193.682 260.359 243.353 278.999 285.486 259.86C327.619 240.72 346.259 191.05 327.12 148.917C307.981 106.784 258.31 88.1437 216.177 107.283Z" fill="#E7652C" stroke="#E7652C" stroke-width="10.2763"/>
<path d="M193.75 161.015C151.617 180.154 132.977 229.825 152.116 271.958C171.255 314.091 220.926 332.731 263.059 313.592C305.192 294.453 323.832 244.782 304.693 202.649C285.553 160.516 235.883 141.876 193.75 161.015Z" fill="#E7652C" stroke="#E7652C" stroke-width="10.2763"/>
<path d="M68.5079 178.631C36.9082 192.985 22.9281 230.238 37.2825 261.838C51.6369 293.437 88.8901 307.418 120.49 293.063C152.089 278.709 166.07 241.456 151.715 209.856C137.361 178.256 100.108 164.276 68.5079 178.631Z" fill="#F9C9B4"/>
<path opacity="0.623853" d="M118.829 169.14C80.9909 186.329 64.2507 230.937 81.4391 268.775C98.6274 306.613 143.235 323.354 181.074 306.165C218.912 288.977 235.652 244.369 218.464 206.53C201.276 168.692 156.668 151.952 118.829 169.14Z" fill="#F9C9B4"/>
</g>
<g clip-path="url(#clip1)">
<path d="M290.733 47.0359C290.733 46.644 290.733 46.2521 290.341 45.8601V45.4682C289.949 45.0762 289.949 44.6843 289.557 44.2923L246.443 1.1778C246.051 0.785853 245.659 0.785853 245.267 0.393903H244.875C244.483 0.393903 244.091 0.00195312 243.699 0.00195312H114.356C112.004 0.00195312 110.436 1.56975 110.436 3.92145V231.252C110.436 233.604 112.004 235.172 114.356 235.172H133.953H157.47H177.068H212.343H286.813C289.165 235.172 290.733 233.604 290.733 231.252V47.0359ZM277.407 43.1165H247.618V13.3283L277.407 43.1165ZM137.873 90.1505H153.551V203.816H137.873V90.1505ZM139.832 82.3114L145.712 68.5932L151.591 82.3114H139.832ZM137.873 227.333V211.655H153.551V227.333H137.873ZM180.987 227.333V203.816H196.665V195.977H180.987V172.46H196.665V164.621H180.987V137.184H196.665V129.345H180.987V105.828H196.665V97.9894H180.987V78.392H208.424V227.333H180.987ZM216.263 227.333V74.4725C216.263 72.1208 214.695 70.5529 212.343 70.5529H177.068C174.716 70.5529 173.148 72.1208 173.148 74.4725V227.333H161.39V207.735V86.2309C161.39 85.0551 160.998 83.8792 160.214 83.4873L149.239 57.6186C148.847 56.0508 147.279 55.2669 145.712 55.2669C144.144 55.2669 142.968 56.0508 142.184 57.6186L131.21 83.4873C130.426 84.2712 130.034 85.0551 130.034 86.2309V207.735V227.333H118.275V7.84095H239.779V47.0359C239.779 49.3877 241.347 50.9555 243.699 50.9555H282.894V227.333H216.263Z" fill="black"/>
<path d="M161.39 19.5996H130.034V27.4386H161.39V19.5996Z" fill="black"/>
<path d="M267.216 86.231H231.94V94.07H267.216V86.231Z" fill="black"/>
<path d="M267.216 105.829H231.94V113.668H267.216V105.829Z" fill="black"/>
<path d="M267.216 125.426H231.94V133.265H267.216V125.426Z" fill="black"/>
<path d="M267.216 145.023H231.94V152.862H267.216V145.023Z" fill="black"/>
<path d="M267.216 164.621H231.94V172.46H267.216V164.621Z" fill="black"/>
<path d="M267.216 184.218H231.94V192.057H267.216V184.218Z" fill="black"/>
<path d="M267.216 203.816H231.94V211.655H267.216V203.816Z" fill="black"/>
<path d="M192.746 35.2773H130.034V43.1163H192.746V35.2773Z" fill="black"/>
</g>
<defs>
<clipPath id="clip0">
<rect width="344" height="344" fill="white" transform="translate(455.474 367.202) rotate(155.57)"/>
</clipPath>
<clipPath id="clip1">
<rect width="235.169" height="235.17" fill="white" transform="translate(82.9998 0.00195312)"/>
</clipPath>
</defs>
</svg>
